X:0179
T:Capt. Campbel of Aird's Quick Step W.F.R.
M:2/4
L:1/8
Q:1/4=84
I: :| ::
Z:Jack Campin * www.campin.me.uk * 2009
K:D
A2df|feeg|(g/f/e/d/)   (f/e/d/c/)  |d2d2:|
eAAe|fddf| eA           A/B/A/G/   |FDDE |
FAdf|feeg|(g/f/)(e/d/) (f/e/)(d/c/)|d2d2|]

